tools/download-figma-icons/icons/outlined-medium/freedom.svg

<svg width="24" height="24" viewBox="0 0 24 24" fill="none" xmlns="http://www.w3.org/2000/svg">
<path d="M5.15769 24.0003C4.94779 24.0003 4.73788 23.9253 4.56546 23.7829C2.54137 22.0436 1.56681 20.6193 1.10202 19.7347C0.989571 19.5173 0.967081 19.2624 1.04954 19.03C1.12451 18.7976 1.29693 18.6027 1.52183 18.4977L5.88487 16.4137C3.62838 14.8844 -0.53974 10.9186 2.23401 3.90181C2.34646 3.61693 2.58635 3.41453 2.88622 3.34706C3.17859 3.27959 3.49344 3.36955 3.70335 3.58695C4.49049 4.3666 8.53867 8.09242 13.3665 7.11786C13.2915 5.97087 13.449 3.79685 15.488 2.60489C16.62 1.94519 17.8645 1.84773 18.989 2.32751C20.1884 2.83729 21.193 3.99177 21.5828 5.30367L22.6623 6.40568C22.8497 6.59309 22.9472 6.85548 22.9322 7.11786C22.9172 7.38024 22.7972 7.62763 22.5948 7.80005L21.1855 8.97702C21.1855 8.97702 20.7807 9.34436 20.7432 10.3489C20.6532 12.8453 20.121 15.0793 19.0939 17.1708C17.7295 19.9671 13.3515 22.5159 8.56116 21.8937L5.65247 23.8428C5.50254 23.9478 5.33012 24.0003 5.1502 24.0003H5.15769ZM4.82784 22.5984C4.82784 22.5984 4.81285 22.6059 4.81285 22.6134L4.82784 22.5984ZM2.74378 19.5772C3.19358 20.2819 3.95074 21.2265 5.20267 22.3435L8.21632 20.3269L8.50869 20.3719C12.5943 21.0091 16.5975 18.8951 17.7595 16.5111C18.6891 14.607 19.1764 12.5754 19.2588 10.2964C19.3188 8.54222 20.1809 7.86752 20.2784 7.80005L21.1855 7.03539L20.2409 6.07583L20.1884 5.87342C19.956 4.93634 19.2439 4.06673 18.4117 3.71439C17.707 3.41453 16.9799 3.48199 16.2527 3.90181C14.6484 4.83888 14.8208 6.81799 14.9108 7.40273C14.9858 7.87502 14.6859 8.33231 14.2211 8.45975C9.28833 9.74917 5.06773 6.76552 3.33601 5.27369C0.967081 12.6579 7.50414 15.6715 7.78901 15.7989L9.27334 16.4587L2.75128 19.5697L2.74378 19.5772Z" fill="black"/>
<path d="M14.1611 5.88066C13.9587 5.82819 9.52068 4.6887 6.37959 1.92244C5.98977 2.87452 5.57745 4.20142 5.64492 5.52082L4.1456 5.59579C4.04065 3.52672 4.86528 1.51763 5.37505 0.498086C5.50249 0.243201 5.74988 0.0557852 6.03475 0.0108054C6.31962 -0.0341743 6.61199 0.0632818 6.8144 0.265691C9.66311 3.15189 14.4759 4.40383 14.5284 4.41132L14.1611 5.86567V5.88066Z" fill="black"/>
<path d="M9.23595 12.9725C9.23595 12.9725 9.19847 12.9725 9.18348 12.9725C5.37519 12.6951 2.0167 9.79389 1.87427 9.67395C1.55941 9.40407 1.52942 8.93178 1.8068 8.61692C2.07668 8.30206 2.54896 8.27208 2.86382 8.54196C2.89381 8.57194 5.98991 11.2332 9.29593 11.4731C9.70824 11.5031 10.0156 11.863 9.98561 12.2753C9.95563 12.6726 9.62578 12.9725 9.23595 12.9725Z" fill="black"/>
<path d="M9.4156 17.9955C9.37062 17.9955 9.32564 17.9955 9.28816 17.9806C8.531 17.8456 7.28656 17.2309 7.14412 17.1634C6.77679 16.976 6.62685 16.5262 6.80677 16.1589C6.99419 15.7915 7.44399 15.6341 7.81132 15.8215C8.26112 16.0464 9.13073 16.4363 9.54304 16.5037C9.94786 16.5787 10.2252 16.961 10.1503 17.3733C10.0903 17.7407 9.76794 17.9955 9.4156 17.9955Z" fill="black"/>
<path d="M3.19376 22.1628C2.93138 22.1628 2.68399 22.0278 2.54156 21.7879C2.33165 21.4281 2.45909 20.9708 2.81893 20.7609L5.49523 19.2166C5.85506 19.0067 6.31236 19.1341 6.52226 19.494C6.73217 19.8538 6.60473 20.3111 6.24489 20.521L3.56859 22.0653C3.44865 22.1328 3.32121 22.1628 3.19376 22.1628Z" fill="black"/>
<path d="M16.5976 6.77331C16.4627 6.77331 16.3278 6.73583 16.2003 6.66086C15.848 6.44346 15.743 5.97867 15.9604 5.62633C16.2528 5.15404 16.6951 4.86917 17.2049 4.8167C17.7521 4.76422 18.3144 5.00411 18.7267 5.45391C19.0041 5.76127 18.9891 6.23356 18.6817 6.51093C18.3743 6.78831 17.9021 6.76582 17.6247 6.46595C17.5122 6.34601 17.3848 6.30852 17.3473 6.30852C17.3173 6.30852 17.2723 6.3685 17.2424 6.41348C17.0999 6.63837 16.8525 6.76582 16.6051 6.76582L16.5976 6.77331Z" fill="black"/>
</svg>

<svg xmlns="http://www.w3.org/2000/svg" width="24" height="24" fill="none" viewBox="0 0 24 24"><path fill="currentColor" d="M5.158 24a.93.93 0 0 1-.593-.217c-2.024-1.74-2.998-3.164-3.463-4.048a.9.9 0 0 1-.052-.705.9.9 0 0 1 .472-.532l4.363-2.084C3.628 14.884-.54 10.919 2.234 3.902a.9.9 0 0 1 .652-.555.87.87 0 0 1 .817.24c.787.78 4.836 4.505 9.664 3.53-.076-1.146.082-3.32 2.121-4.512 1.132-.66 2.377-.757 3.501-.277 1.2.51 2.204 1.664 2.594 2.976l1.08 1.102c.187.187.284.45.27.712a.97.97 0 0 1-.338.682l-1.41 1.177s-.404.367-.442 1.372c-.09 2.496-.622 4.73-1.65 6.822-1.363 2.796-5.741 5.345-10.532 4.723l-2.909 1.949A.87.87 0 0 1 5.15 24zm-.33-1.402s-.015.008-.015.015zm-2.084-3.02c.45.704 1.207 1.649 2.459 2.765l3.013-2.016.293.045c4.085.637 8.089-1.477 9.25-3.86.93-1.905 1.417-3.937 1.5-6.216.06-1.754.922-2.428 1.02-2.496l.907-.765-.945-.96-.053-.202c-.232-.937-.944-1.806-1.776-2.159-.705-.3-1.432-.232-2.16.188-1.604.937-1.431 2.916-1.341 3.5a.95.95 0 0 1-.69 1.058C9.288 9.75 5.068 6.766 3.336 5.274.967 12.658 7.504 15.672 7.789 15.799l1.484.66-6.522 3.11z"/><path fill="currentColor" d="M14.161 5.88c-.202-.052-4.64-1.191-7.781-3.958-.39.953-.803 2.28-.735 3.599l-1.5.075c-.104-2.07.72-4.078 1.23-5.098a.9.9 0 0 1 .66-.487.91.91 0 0 1 .78.255c2.848 2.886 7.66 4.138 7.713 4.145l-.367 1.455zm-4.925 7.093h-.053c-3.808-.278-7.166-3.18-7.309-3.3a.74.74 0 0 1-.067-1.056.75.75 0 0 1 1.057-.075c.03.03 3.126 2.691 6.432 2.931.412.03.72.39.69.802a.75.75 0 0 1-.75.697m.18 5.024c-.045 0-.09 0-.128-.015-.757-.135-2.001-.75-2.144-.818a.76.76 0 0 1-.337-1.004.75.75 0 0 1 1.004-.337c.45.224 1.32.614 1.732.682a.75.75 0 0 1 .607.87.746.746 0 0 1-.734.622m-6.222 4.167a.75.75 0 0 1-.375-1.402l2.676-1.544a.75.75 0 0 1 1.027.277.75.75 0 0 1-.277 1.027l-2.676 1.544a.76.76 0 0 1-.375.098m13.404-15.39a.752.752 0 0 1-.637-1.147c.292-.472.734-.757 1.244-.81.547-.052 1.11.188 1.522.638a.747.747 0 1 1-1.102 1.012.48.48 0 0 0-.278-.157c-.03 0-.075.06-.105.104a.76.76 0 0 1-.637.353z"/></svg>
